X:1
T:I Have a Song That Jesus Gave Me
T:I Have a Song That Jesus Gave Me
T:Elton Menno Roth
T:Elton Menno Roth, 1924
T:© 1924, renewed 1951, Hope Publishing Company Courtesy of the Cyber Hymnal™
C:Elton Menno Roth
Z:© 1924, renewed 1951, Hope Publishing Company
Z:Courtesy of the Cyber Hymnal™
%%score 1 ( 2 3 )
L:1/8
Q:1/4=98
M:4/4
K:G
V:1 treble 
V:2 bass 
V:3 bass 
V:1
 [DB]<[^C^A] [DB]/ | [Ec]2 [DF]2 [DB]2 [CA]2 | [B,G]2 [B,D]4 [B,D]>[B,G] | %3
w: 1.~I have a|song that Je- sus|gave me, It was|
w: 2.~I love the|Christ who died on|Cal- v’ry, For He|
w: 3.~’Twill be my|end- less theme in|glo- ry, With the|
 [CF]2 [CE]2 [CD]2 [Ec]2 | [DB]4- [DB]>[DB] [^C^A]>[DB] | [Ec]2 [DF]2 [FB]2 [FA]2 | %6
w: sent from Heav’n a-|bove; * There ne- ver|was a sweet- er|
w: washed my sins a-|way; * He put with-|in my heart a|
w: an- gels I will|sing; * ’Twill be a|song with glor- ious|
 [EG]>[EA] [EB]4 [GB]>[GB] | [FA]2 [FA]2 [GB]2 [G^c]2 | [Fd]6 z2 || %9
w: mel- o- dy, ’Tis the|mel- o- dy of|love.|
w: mel- o- dy, And I|know it’s there to|stay.|
w: har- mo- ny, When the|courts of Heav- en|ring.|
"^Refrain" [Fd]2 [Ec]2 [DB]2 [CA]2 | [B,G]>[CA] [DB]>[B,G] [B,D]2 [B,D]2 | %11
w: ||
w: In my heart there|rings a mel- o- dy, There|
w: ||
 [CD]>[CE] [CF]>[CE] [CD]2 [CD]2 | [B,D]>[B,E] [B,G]>[B,E] [B,D]2 z2 | [Fd]2 [Ec]2 [DB]2 [CA]2 | %14
w: |||
w: rings a mel- o- dy with|Heav- en’s har- mo- ny;|In my heart there|
w: |||
 [B,G]>[CA] [DB]>[B,G] [B,D]2 [B,D]2 | [CD]>[CE] [CF]>[CE] [CD]2 [CA]2 | [B,G]4- [B,G]3/2 |] %17
w: |||
w: rings a mel- o- dy, There|rings a mel- o- dy of|love. *|
w: |||
V:2
 [G,,G,]<[G,,G,] [G,,G,]/ | [D,F,]2 [D,A,]2 [D,G,]2 [D,F,]2 | [G,,G,]2 [G,,G,]4 [G,,G,]>[G,,D,] | %3
 [A,,D,]2 [A,,E,]2 [D,F,]2 [D,F,]2 | [G,,G,]4- [G,,G,]>[G,,G,] [G,,G,]>[G,,G,] | %5
 [D,F,]2 [D,A,]2 [D,D]2 [^D,C]2 | [E,B,]>[F,B,] [G,B,]4 [E,^C]>[E,C] | %7
 [F,D]2 [D,D]2 [A,,^C]2 [A,,A,]2 | [D,A,]6 z2 || [D,A,]2 [D,F,]2 [D,G,]2 [D,F,]2 | %10
 [G,,G,]>[G,,G,] [G,,G,]>[G,,D,] [G,,G,]2 [G,,G,]2 | [D,F,]>[D,G,] [D,A,]>[D,G,] [D,F,]2 [D,F,]2 | %12
 [G,,G,]>[G,,G,] [G,,D,]>[G,,E,] [G,,G,]2 z2 | [D,A,]2 [D,F,]2 [D,G,]2 [D,F,]2 | %14
 [G,,G,]>[G,,G,] [G,,G,]>[G,,D,] [G,,G,]2 [G,,G,]2 | [D,F,]>[D,G,] [D,A,]>[D,G,] [D,F,]2 D,2 | %16
 [G,,D,]4- [G,,D,]3/2 |] %17
V:3
 x5/2 | x8 | x8 | x8 | x8 | x8 | x8 | x8 | x8 || x8 | x8 | x8 | x8 | x8 | x8 | x6 D,2 | x11/2 |] %17

